src/assets/volumne-off.svg

<?xml version="1.0" encoding="utf-8"?><!-- Uploaded to: SVG Repo, www.svgrepo.com, Generator: SVG Repo Mixer Tools -->
<svg width="800px" height="800px" viewBox="0 0 24 24" fill="none" xmlns="http://www.w3.org/2000/svg">
<path d="M10.0012 8.99984H9.1C8.53995 8.99984 8.25992 8.99984 8.04601 9.10883C7.85785 9.20471 7.70487 9.35769 7.60899 9.54585C7.5 9.75976 7.5 10.0398 7.5 10.5998V13.3998C7.5 13.9599 7.5 14.2399 7.60899 14.4538C7.70487 14.642 7.85785 14.795 8.04601 14.8908C8.25992 14.9998 8.53995 14.9998 9.1 14.9998H10.0012C10.5521 14.9998 10.8276 14.9998 11.0829 15.0685C11.309 15.1294 11.5228 15.2295 11.7143 15.3643C11.9305 15.5164 12.1068 15.728 12.4595 16.1512L15.0854 19.3023C15.5211 19.8252 15.739 20.0866 15.9292 20.1138C16.094 20.1373 16.2597 20.0774 16.3712 19.9538C16.5 19.811 16.5 19.4708 16.5 18.7902V5.20948C16.5 4.52892 16.5 4.18864 16.3712 4.04592C16.2597 3.92233 16.094 3.86234 15.9292 3.8859C15.7389 3.9131 15.5211 4.17451 15.0854 4.69733L12.4595 7.84843C12.1068 8.27166 11.9305 8.48328 11.7143 8.63542C11.5228 8.77021 11.309 8.87032 11.0829 8.93116C10.8276 8.99984 10.5521 8.99984 10.0012 8.99984Z" stroke="currentColor" stroke-width="2" stroke-linecap="round" stroke-linejoin="round"/>
</svg>

<svg width="800" height="800" viewBox="0 0 24 24" fill="none" xmlns="http://www.w3.org/2000/svg"><path d="M10.001 9H9.1c-.56 0-.84 0-1.054.109a1 1 0 00-.437.437C7.5 9.76 7.5 10.04 7.5 10.6v2.8c0 .56 0 .84.109 1.054a1 1 0 00.437.437C8.26 15 8.54 15 9.1 15h.901c.551 0 .827 0 1.082.069.226.06.44.16.631.295.216.152.393.364.745.787l2.626 3.151c.436.523.654.785.844.812a.5.5 0 00.442-.16c.129-.143.129-.483.129-1.164V5.21c0-.681 0-1.021-.129-1.164a.5.5 0 00-.442-.16c-.19.027-.408.289-.844.811L12.46 7.848c-.352.424-.528.635-.745.787a2 2 0 01-.631.296C10.828 9 10.553 9 10 9z" stroke="currentColor" stroke-width="2" stroke-linecap="round" stroke-linejoin="round"/></svg>
